X:1
L:1/8
Q:1/4=160
M:2/4
K:Cmin
|:""Gm"" GG GG |""Fm"" c2 c2 |""Gm"" dd c=B |""Fm"" c2 c2 |""Fm"" FF FF |""Gm"" B2 GG |""Fm"" AA GF | 
""Gm"" G2 G2 :|
